src/icons/icons_set_01/012-smiley-bien.svg

<svg height="50" viewBox="0 0 50 50" width="50" xmlns="http://www.w3.org/2000/svg"><g transform="translate(2.995 2.995)"><path d="m14.2555553 16.3868627c0-1.3410457 1.0871323-2.428178 2.428178-2.428178s2.428178 1.0871323 2.428178 2.428178-1.0871323 2.428178-2.428178 2.428178c-1.3388577-.0030885-2.4225802-1.0893168-2.4225766-2.428178zm11.0038194 0c0-1.3410457 1.0871323-2.428178 2.428178-2.428178s2.428178 1.0871323 2.428178 2.428178-1.0871323 2.428178-2.428178 2.428178c-1.3388577-.0030885-2.4225803-1.0893168-2.4225767-2.428178zm5.7357653 9.939566c-1.503958 3.478428-5.024396 5.7245626-8.9621333 5.7245626-4.0301594 0-7.5618-2.260138-9.023748-5.7525693-.2490292-.5985982.0343524-1.285736.6329507-1.5347653.5985982-.2490292 1.285736.0343524 1.5347653.6329506 1.0866586 2.6158227 3.7780993 4.3074254 6.856032 4.3074254 3.0107166 0 5.6853533-1.6804 6.8196233-4.310226.2575364-.5947314.948436-.8680818 1.5431673-.6105454.5947314.2575365.8680818.948436.6105454 1.5431674z"/><path d="m37.3932396 6.61963733c8.4861967 8.50313027 8.4861967 22.27039577 0 30.77352597-6.2235158 6.2241868-15.583641 8.0864249-23.7155851 4.7183199-8.13194422-3.3681048-13.43417889-11.3032282-13.43417889-20.1050829s5.30223462-16.73697809 13.43417889-20.10508289c8.1319442-3.3681048 17.4920693-1.50586674 23.7155851 4.71831992zm-22.9502681-2.87054023c-7.38456895 3.05855544-12.19949589 10.2643926-12.19949589 18.2573032s4.81492698 15.1987478 12.19949589 18.2573032c7.384569 3.0585556 15.8844416 1.3674686 21.5353119-4.2840105 7.7062494-7.7216271 7.7063604-20.2244868.000333-27.94625169-5.6515375-5.6518791-14.1512211-7.34283951-21.5356449-4.28434421z"/></g></svg>

<?xml version="1.0" encoding="UTF-8"?>
<svg width="50px" height="50px" viewBox="0 0 50 50" version="1.1" xmlns="http://www.w3.org/2000/svg" xmlns:xlink="http://www.w3.org/1999/xlink">
    <!-- Generator: Sketch 52.4 (67378) - http://www.bohemiancoding.com/sketch -->
    <title>012-smiley-bien</title>
    <desc>Created with Sketch.</desc>
    <g id="012-smiley-bien" stroke="none" stroke-width="1" fill="none" fill-rule="evenodd">
        <g id="Group" transform="translate(2.995000, 2.995000)" fill="#000000" fill-rule="nonzero">
            <g id="006-smiley-bien">
                <g id="ICONSET-01">
                    <g id="006-smiley-bien">
                        <path d="M14.2555553,16.3868627 C14.2555553,15.045817 15.3426876,13.9586847 16.6837333,13.9586847 C18.024779,13.9586847 19.1119113,15.045817 19.1119113,16.3868627 C19.1119113,17.7279084 18.024779,18.8150407 16.6837333,18.8150407 C15.3448756,18.8119522 14.2611531,17.7257239 14.2611567,16.3868627 L14.2555553,16.3868627 Z M25.2593747,16.3868627 C25.2593747,15.045817 26.346507,13.9586847 27.6875527,13.9586847 C29.0285984,13.9586847 30.1157307,15.045817 30.1157307,16.3868627 C30.1157307,17.7279084 29.0285984,18.8150407 27.6875527,18.8150407 C26.348695,18.8119522 25.2649724,17.7257239 25.264976,16.3868627 L25.2593747,16.3868627 Z M30.99514,26.3264287 C29.491182,29.8048567 25.970744,32.0509913 22.0330067,32.0509913 C18.0028473,32.0509913 14.4712067,29.7908533 13.0092587,26.298422 C12.7602295,25.6998238 13.0436111,25.012686 13.6422094,24.7636567 C14.2408076,24.5146275 14.9279454,24.7980091 15.1769747,25.3966073 C16.2636333,28.01243 18.955074,29.7040327 22.0330067,29.7040327 C25.0437233,29.7040327 27.71836,28.0236327 28.85263,25.3938067 C29.1101664,24.7990753 29.801066,24.5257249 30.3957973,24.7832613 C30.9905287,25.0407978 31.2638791,25.7316973 31.0063427,26.3264287 L30.99514,26.3264287 Z" id="Shape"></path>
                        <path d="M37.3932396,6.61963733 C45.8794363,15.1227676 45.8794363,28.8900331 37.3932396,37.3931633 C31.1697238,43.6173501 21.8095986,45.4795882 13.6776545,42.1114832 C5.54571028,38.7433784 0.243475613,30.808255 0.243475613,22.0064003 C0.243475613,13.2045456 5.54571023,5.26942221 13.6776545,1.90131741 C21.8095987,-1.46678739 31.1697238,0.395450671 37.3932396,6.61963733 Z M14.4429715,3.7490971 C7.05840255,6.80765254 2.24347561,14.0134897 2.24347561,22.0064003 C2.24347561,29.9993109 7.05840259,37.2051481 14.4429715,40.2637035 C21.8275405,43.3222591 30.3274131,41.6311721 35.9782834,35.979693 C43.6845328,28.2580659 43.6846438,15.7552062 35.9786164,8.03344131 C30.3270789,2.38156221 21.8273953,0.690601799 14.4429715,3.7490971 Z" id="Shape-path"></path>
                    </g>
                </g>
            </g>
        </g>
    </g>
</svg>
